X:1
T:7 Mélodies, Op.2
T:Sérénade italienne
T:Ernest Chausson 
T:Paul Bourget
T:5. Sérénade italienne
T:7 Mélodies
T:OpenScore (CC0)
T:OpenScore (CC0)
T:OpenScore (CC0)
T:OpenScore (CC0)
C:Ernest Chausson
Z:Paul Bourget
Z:OpenScore (CC0)
%%score 1 { ( 2 5 ) | ( 3 4 ) }
L:1/8
Q:1/4=114
M:3/2
K:B
V:1 treble nm="Hautbois"
V:2 treble nm="Piano"
V:5 treble 
V:3 bass 
V:4 bass 
V:1
"^Moderato" z12 | z12 |!p! d2 e e d2 c2 d2 B2 | c4- c2 z2 z2 =G G |!<(! F2 c2 B2 c!<)! c!>(! e4 | %5
w: ||Par- tons en bar- que sur la|mer _ Pour pas-|\- ser la nuit aux é- toi-|
 d2!>)! z2 z4 z4 |!mf! !fermata!d12- | d2!p! =e2 d2 c2 d2 B B | =G12 |!mf! d2 e2 d2 c2 B2 c d | %10
w: les.|Vois,|_ il souf- fle juste as- sez|d'air|Pour en- fler la toi- le des|
 B4 G2 z2 z4 | z12 |!pp! z B B B =d4 (3d2 c2 B2 | =A4 z2 A2 A2 A2 | =c6 c2 c2 c2 | %15
w: voi- les.||Le vieux pê- cheur i- ta- li-|\- en Et ses deux|fils, qui nous con-|
 ^c4 G2 z2 z2 G2 |!p! B4- (3B2!>(! =G2 F2 (3E2 G2 B2!>)! | _B4- B2 z2 z2 B2 | %18
w: \- dui- sent, E-|cou- * tent mais n'en- ten- dent|rien _ Aux|
 =B4- (3B2 =G2 F2 (3E2 G2 B2 | _B4 _E2- E z z4 | z12 | z4!p! =c3 c c4- | c4 _B2 _A2 =c4- | %23
w: mots _ que nos bou- ches se|di- sent. _||Sur la mer|_ calme et som-|
 =c4 c z z2 z4 |!<(! _e12- | _e12!<)! |!p! ^d2 =e2 d2 c c d2 B2 | c4 c2 z2 z4 | %28
w: * bre|Vois,|_|Nous pou- vons é- chan- ger nos|â- mes,|
 d2 e2 d2 c c d2 B2 | =G4- G2 z2"^rit." z4[Q:1/4=107][Q:1/4=100] | %30
w: Et nul ne com- pren- dra nos|voix, _|
!mf!"^en ralentissant beaucoup"[Q:1/4=95] F3 F[Q:1/4=85] =G4-[Q:1/4=75] G2[Q:1/4=70] E2[Q:1/4=90][Q:1/4=80] | %31
w: Que la nuit, _ le|
 =C2 _E =G ^F8[Q:1/4=65][Q:1/4=60] |[Q:1/4=114]"^a tempo" F4- F z z2 z4 | z12 | z12 | z12 |] %36
w: ciel et les la-|mes. _||||
V:2
!p! (6:4:6(DFB)(EGB) (6:4:6(DFB)(CEB) (6:4:6(DFB)(B,DB) | %1
!>(! (6:4:6(CEB)(CEB) (6:4:6(CEB)(CEB) (6:4:6(CEB)(CEB)!>)! | %2
!p! (6:4:6(DFB)(EGB) (6:4:6(DFB)(CEB) (6:4:6(DFB)(B,DB) | %3
!>(! (6:4:6(CEB)(CEB) (6:4:6(CEB)(CEB) (6:4:6(CEB)(CEB)!>)! | %4
!<(! (6:4:6(DFB)(CEc) (6:4:6(DFB)(CGc)!<)! (6:4:6(=C=A=cecA) | %5
 (6:4:6(FBd) (GBd) (6:4:6(FBd) (DFB) (6:4:6(B,DF) (=A,DF) | %6
!mf! (6:4:6(G,DG ^BFD (6:4:6^B,DG Bdg ^b2) !fermata!z2 | %7
!p! (6:4:6(DF=B)(EGB) (6:4:6(DFB)(CEB) (6:4:6(DFB)(B,DB) | =G2- G z z8 | %9
 (6:4:6(^DFB)(=E^GB) (6:4:6(DFB)(^CEB) (6:4:6(B,DB)(CEB) |!mf! B2- B z z4 (6:4:6D^^CDG^^FG | %11
!p! B2- B z z4 (6:4:6D^^CDG^^FG |!pp! B2 x2 G2 x2 ^E2 x2 | =A2 x2 _E2 x2 =C2 x2 | %14
 =c2 x2 =A2 x2 E2 x2 | ^c2 x2 G2 x2 E2 x2 |!p! B2 x2 B2 x2 B2 x2 | ^A2 x2 A2 x2 A2 x2 | %18
 (6:4:6(=B=GE=B,[I:staff +1]=G,B,,)[I:staff -1] (6:4:6(BGEB,[I:staff +1]G,B,,)[I:staff -1] (6:4:6(BGEB,[I:staff +1]G,B,,) | %19
[I:staff -1] (6:4:6(_B=G_E_D[I:staff +1]_B,_B,,)[I:staff -1] (6:4:6(BGED[I:staff +1]B,B,,)[I:staff -1] (6:4:6(BGED[I:staff +1]B,B,,) | %20
[I:staff -1] z/!pp! (_E/_A/=c/_e/c/A/E/) z/ (E/A/c/e/c/A/E/) z/ (=F/A/c/=f/c/A/F/) | %21
 z/!pp! (_E/_A/=c/_e/c/A/E/) z/ (E/A/c/e/c/A/E/) z/ (=F/A/c/=f/c/A/F/) | %22
 z/ (_E/_A/=c/_e/c/A/E/) z/ (E/A/c/e/c/A/E/) z/ (=F/A/c/=f/c/A/F/) | %23
 z/ (_E/_A/=c/_e/c/A/E/) z/ (E/A/c/e/c/A/E/) z/ (=F/A/c/=f/c/A/F/) | %24
 z/ (_E/=G/"_cresc."_B/_e/_B/G/_D/) z/ (E/G/B/e/B/G/D/) z/ (E/G/B/e/B/G/D/) | %25
 z/ (_E/=G/_B/_e/_B/G/_D/) z/ (E/"_dim."G/B/e/_B/G/D/) z/ (E/G/B/e/_B/G/D/) | %26
!p! (^D/^F/=B/^d/)"_M.G." =E/(E/G/B/) D/(D/F/B/) C/(C/E/B/) D/(D/F/B/) B,/(B,/D/B/) | %27
!>(! (6:4:6(CE=GBGE) (6:4:6(CEGBGE) (6:4:6(CEGBGE)!>)! | %28
 (3(^DFB)"_M.G." E/(E/G/B/) D/(D/F/B/) C/(C/E/B/) D/(D/F/B/) B,/(B,/D/B/) | %29
 =G2- G z x4"_rit."[I:staff +1] (6:4:6=C,B,,C,=G,,F,,G,, | %30
"_en ralentissant beaucoup"[I:staff -1] (6:4:6F,B,^DFDB, (6:4:6=G,B,=D=GDB, (6:4:6G,=CEGEC | %31
 (6:4:6=G,=C_E=GEC (6:4:6(^A,^C=EFAc"_rit." (6:4:6e^ef^^fg^a) | %32
!mf!"_a tempo" (b/d'/f'/b'/)"_M.G." g/(g/b/g'/) f/(f/b/f'/) d/(d/f/d'/) B/(B/d/b/) G/(G/B/g/) | %33
 (F/F/B/f/) D/(D/F/d/) B,/(B,/D/B/)[I:staff +1] G,/(G,/B,/G/) F,/(F,/B,/F/) D,/(D,/F,/B,/) | %34
 (6:4:6(E,=G,^A,=CDE[I:staff -1] (6:4:6GA=cdeg (6:4:6a=c'd'e'g'a') | %35
!p!!8va(! [d'b'f'']2!8va)! z2 z4 z4 |] %36
V:3
 z12 | (=G,,4!>(! =A,,G,,!>)! G,,2- G,,F,,E,,G,, | [B,,,F,,]12) | %3
 (=G,,4!>(! =A,,G,,!>)! G,,2- G,,F,,E,,G,, | F,,2 =G,,2) F,,2 ^E,,2 =E,,2 =A,,2 | [B,,,B,,]12 | %6
 [G,,D,]8- [G,,D,]2 !fermata!z2 | [B,,,B,,]12 | [=C,,=G,,_E,]4 z4 x4 | [B,,,B,,]12 | [G,,D,]12 | %11
 [F,,D,]12 | [^E,,=D,]4 x4 G, x x2 | [^F,,=C,]4 x4 _E, x x2 | [=E,,=C,]4 x4 =A, x x2 | %15
 [^C,,^G,,]12 | E,,2 z2 E,,2 z2 E,,2 z2 | =G,,2 z2 G,,2 z2 =C,2 z2 | [E,,B,,]2 z2 E,,2 z2 E,,2 z2 | %19
 _E,,2 z2 E,,2 z2 E,,2 z2 | z4 !^!_E4 !^!=F4 | z4 !^!_E4 !^!=F4 | z4 !^!_E4 !^!=F4 | %23
 z4 !^!_E4 !^!=F4 | z4 !^!_E4 !^!E4 | !^!_E4 !^!E4 !^!E4 | [=B,,,^F,,]12 | %27
 =G,,4!>(! =A,,G,,!>)! G,,2- G,,F,,E,,G,, | [B,,,F,,]4- [B,,,F,,]2 z2 z4 | [=C,,=G,,_E,]4 z4 x4 | %30
 F,,4 =F,,4 E,,4 | ^D,,4 ^C,,8 | [B,,,F,,]12- | [B,,,F,,]12 | [=C,,=C,]12 | [B,,,B,,]2 z2 z4 z4 |] %36
V:4
 x12 | B,,,12 | x12 | B,,,12 | B,,,12 | x12 | x12 | x12 | x12 | x12 | x12 | x12 | x12 | x12 | x12 | %15
 x12 | x12 | x12 | x12 | x12 | [_A,,,_E,,]12 | [_A,,,_E,,]12 | [_A,,,_E,,]12 | [_A,,,_E,,]12 | %24
 _E,,12 | x12 | x12 | B,,,12 | x12 | x12 | x12 | x12 | x12 | x12 | x12 | x12 |] %36
V:5
 x12 | x12 | x12 | x12 | x12 | F2 G2 F2 D2 B,2 =A,2 | x12 | x12 | %8
 (6:4:6_E=D!mf!E=CB,C[I:staff +1] (6:4:6=G,F,G,_E,=D,E, (6:4:6=C,B,,C,=G,,F,,G,, | x12 | %10
[I:staff -1] (6:4:6[B,G]^^FGD^^CD[I:staff +1] (6:4:6B,A,B,G,^^F,G, B,[I:staff -1] z z2 | %11
 (6:4:6G^^FGD^^CD[I:staff +1] (6:4:6B,A,B,G,^^F,G, B,[I:staff -1] z z2 | %12
 (6:4:6G^F^E[I:staff +1]^E=DC[I:staff -1] (6:4:6E=DC[I:staff +1]CB,=A,[I:staff -1] (6:4:6DCB,[I:staff +1]B,A,G, | %13
[I:staff -1] (6:4:6_E=D=C[I:staff +1]=C_B,=A,[I:staff -1] (6:4:6C_B,=A,[I:staff +1]A,=G,F,[I:staff -1] (6:4:6A,=G,F,[I:staff +1]E,=D,=C, | %14
[I:staff -1] (6:4:6=A=F=E[I:staff +1]=E=D=C[I:staff -1] (6:4:6E=D=C[I:staff +1]=C=B,_B,[I:staff -1] (6:4:6C=B,=A,[I:staff +1]E,=C,=A,, | %15
[I:staff -1] (6:4:6^GFE[I:staff +1]E^DC[I:staff -1] (6:4:6EDC[I:staff +1]CG,C,[I:staff -1] (6:4:6C=A,G,[I:staff +1]G,C,G,, | %16
[I:staff -1] (6:4:6B=GEB,[I:staff +1]=G,B,,[I:staff -1] (6:4:6(BGEB,[I:staff +1]G,B,,)[I:staff -1] (6:4:6(BGEB,[I:staff +1]G,B,,) | %17
[I:staff -1] (6:4:6(^A=GEC[I:staff +1]=G,C,)[I:staff -1] (6:4:6(AGEC[I:staff +1]G,C,)[I:staff -1] (6:4:6(AGE=C[I:staff +1]G,C,) | %18
 x2[I:staff -1] x2 x2 x2 x2 x2 | x2 x2 x2 x2 x2 x2 | x12 | x12 | x12 | x12 | x12 | x12 | %26
 x2 =E2 D2 C2 D2 B,2 | x12 | D2 E2 D2 C2 D2 B,2 | %29
 (6:4:6_E=DE=CB,C[I:staff +1] (6:4:6=G,F,G,_E,=D,E,[I:staff -1] z4 | x12 | x12 | %32
 b2 g2 f2 d2 B2 G2 | F2 D2 B,2[I:staff +1] G,2 F,2 D,2 | x12 |!8va(! x2!8va)! x10 |] %36

